public/avatar/shoe/62.svg

<svg xmlns:xlink="http://www.w3.org/1999/xlink" height="38.3" width="36.05" xmlns="http://www.w3.org/2000/svg"><use height="17.2" transform="translate(14.7 11.8)" width="18.85" xlink:href="#a"/><defs><g id="a"><path d="M6.9 4.85Q3.5-2.4-4.55-2.55q-2.9-.05-3.75 4-.6 3.05 0 5.05.85 2.95 3.65 5.55 1.5 1.55 3.75 1.6 2.25.05 2.25-1.25.85.75 2.85.55 2.15-.2 2.1-1.6 1.05.5 2 0 1-.4.95-1.45 0-1.5-.9-2.85-1.1-1.35-1.45-2.2" fill="#fff" fill-rule="evenodd" transform="translate(9.1 3.05)"/><path d="M6.9 4.85Q3.5-2.4-4.55-2.55-7.45-2.6-8.3 1.5q-.6 3 0 5.05.85 2.9 3.65 5.5 1.5 1.55 3.8 1.6 2.25.05 2.25-1.25.8.75 2.85.55 2.1-.2 2.05-1.55 1.05.45 2 0 1-.45.95-1.5 0-1.5-.85-2.8L6.9 4.85Z" fill="none" stroke="#000" stroke-linecap="round" stroke-linejoin="round" transform="translate(9.1 3.05)"/><path d="M-2.55-2q-2.85-.55-4 .65-.8.75-1.25 3.8-.9 6.15 2.35 7.75l-.45-1.6V6.05q0-3.25 2.65-4.7Q.3-.75 3.15.55L1.5-.35Q-.1-1.45-2.55-2" fill="#cedae7" fill-rule="evenodd" transform="translate(9.1 3.05)"/><path d="M-5.85 9.85q1.1 2.05 3 2.7 2.45.8.55-1.55-1.6-1.7-2.35-3.15-.7-1.05-.95-2.9l-.4-1.8q-.65-.25-.85 1.45-.35 1.7.3 3.8l.7 1.45" fill="#cedae7" fill-rule="evenodd" transform="translate(9.1 3.05)"/><path d="M.8 10.75q.2 1.1 1.45 1.45 1.85.5 1.35-.9-.75-2.5-3.2-3l.4 2.45m4.8-.2.2-.1 1.6.45q.15-.9-.95-2.15-1.1-1.25-2-1.05l1.15 2.85" fill="#8ba7c6" fill-rule="evenodd" transform="translate(9.1 3.05)"/></g></defs></svg>

<?xml version="1.0" encoding="UTF-8" standalone="no"?>
<svg xmlns:xlink="http://www.w3.org/1999/xlink" height="38.3px" width="36.05px" xmlns="http://www.w3.org/2000/svg">
  <g transform="matrix(1.0, 0.0, 0.0, 1.0, 23.8, 14.85)">
    <use height="17.2" transform="matrix(1.0, 0.0, 0.0, 1.0, -9.1, -3.05)" width="18.85" xlink:href="#shape0"/>
  </g>
  <defs>
    <g id="shape0" transform="matrix(1.0, 0.0, 0.0, 1.0, 9.1, 3.05)">
      <path d="M6.9 4.85 Q3.5 -2.4 -4.55 -2.55 -7.45 -2.6 -8.3 1.45 -8.9 4.5 -8.3 6.5 -7.45 9.45 -4.65 12.05 -3.15 13.6 -0.9 13.65 1.35 13.7 1.35 12.4 2.2 13.15 4.2 12.95 6.35 12.75 6.3 11.35 7.35 11.85 8.3 11.35 9.3 10.95 9.25 9.9 9.25 8.4 8.35 7.05 7.25 5.7 6.9 4.85" fill="#ffffff" fill-rule="evenodd" stroke="none"/>
      <path d="M6.9 4.85 Q3.5 -2.4 -4.55 -2.55 -7.45 -2.6 -8.3 1.5 -8.9 4.5 -8.3 6.55 -7.45 9.45 -4.65 12.05 -3.15 13.6 -0.85 13.65 1.4 13.7 1.4 12.4 2.2 13.15 4.25 12.95 6.35 12.75 6.3 11.4 7.35 11.85 8.3 11.4 9.3 10.95 9.25 9.9 9.25 8.4 8.4 7.1 L6.9 4.85 Z" fill="none" stroke="#000000" stroke-linecap="round" stroke-linejoin="round" stroke-width="1.0"/>
      <path d="M-2.55 -2.0 Q-5.4 -2.55 -6.55 -1.35 -7.35 -0.6 -7.8 2.45 -8.7 8.6 -5.45 10.2 L-5.9 8.6 -5.9 6.05 Q-5.9 2.8 -3.25 1.35 0.3 -0.75 3.15 0.55 L1.5 -0.35 Q-0.1 -1.45 -2.55 -2.0" fill="#cedae7" fill-rule="evenodd" stroke="none"/>
      <path d="M-5.85 9.85 Q-4.75 11.9 -2.85 12.55 -0.4 13.35 -2.3 11.0 -3.9 9.3 -4.65 7.85 -5.35 6.8 -5.6 4.95 L-6.0 3.15 Q-6.65 2.9 -6.85 4.6 -7.2 6.3 -6.55 8.4 L-5.85 9.85" fill="#cedae7" fill-rule="evenodd" stroke="none"/>
      <path d="M0.8 10.75 Q1.0 11.85 2.25 12.2 4.1 12.7 3.6 11.3 2.85 8.8 0.4 8.3 L0.8 10.75" fill="#8ba7c6" fill-rule="evenodd" stroke="none"/>
      <path d="M5.6 10.55 L5.8 10.45 7.4 10.9 Q7.55 10.0 6.45 8.75 5.35 7.5 4.45 7.7 L5.6 10.55" fill="#8ba7c6" fill-rule="evenodd" stroke="none"/>
    </g>
  </defs>
</svg>
